X:18361
T:Waking Up in Wonderful Wark
R:jig
C:Karen Tweed
D:Across the Waters
Z:Devin McCabe
M:6/8
L:1/8
K:D
|:~A,3 A,B,D|F2A FED|D/2E/2Dd BAF|ABd f2e|
!edB ~d3|BAF AB/2c/2d|edB BAF|AFE E3:||
!:" Optional 8va"~A,3 E2F|GFE FDB,|~A,3 EDC|DB,E DB,E|
!~A,3 E2F|GFE FDB,|~D3 DB,E|1~A,3 A,EC:|2~A,3 A,3||


